X:158
M:2/4
L:1/8
K:D
|:{g}fedf|gfeg|eAgA|fAaA|{g}fedf|gfeg|fdec|dAFA:|

